X:126
T:Chatsworth's Quickstep. Le4.126
M:2/4
L:1/8
Q:1/4=130
B:L.Leadley MS#4 c1850
Z:Village Music Project, 2016 Ruairidh Greig
K:C
G2c>d|cBd2|G2d>e|dce2|
G2cd|e^de^f|gb^gb|ezg2|
g2c'd'|c'bd'2|"Pia"g2d'e'|d'c'e'2|
gc'bb|^gaba|g>G e>d|cz c'zH|]

